X: 1
T:The Mists of Time  "CCPB Okt-1995"
M:3/4
L:1/8
Q:80
C:Seconds - Arr. Kim Persson
S:
K:HP
|: {g}e2|
c2-c3/2B/2{g}c/2e3/2|
{g}f2c2-c3/2d/2|  !
{g}e2e3/2d/2{g}c/2B3/2|
{g}c2-c2{g}e2|
c2-c3/2B/2{g}c/2e3/2|  !
g/2{a}f3/2-f2g2|
{a}f2-f3/2e/2{g}f/2a3/2|
{fg}f2-f2{g}e2|  !
c2-c3/2B/2{g}c/2e3/2|
{g}f2c2-c3/2d/2|
{g}e2e3/2d/2{g}c/2B3/2|  !
{g}c2-c2{g}e2|
c2-c3/2B/2{g}c/2e3/2|
{gf}g2-g3/2f/2{g}d/2B3/2|  !
{g}c2-c2-c2|
{GdG}c2-c2:|
